src/topics/icons/loopback.svg

<svg height="296" preserveAspectRatio="xMidYMid" viewBox="0 0 256 296" width="256" xmlns="http://www.w3.org/2000/svg"><path d="m0 73.9555556 128-73.9555556 128 73.9555556v147.9111114l-128 73.481481-128-73.481481z" fill="#fff"/><path d="m204.8 201.955556h-121.837037v-107.6148153h-24.1777778v132.2666663h69.2148148v20.385186z" fill="#07582a"/><path d="m180.622222 135.585185c5.214815-7.585185 8.059259-16.592592 8.059259-26.074074 0-26.074074-21.333333-47.4074073-47.407407-47.4074073h-13.274074v-16.1185185l-68.7407407 40.2962963h81.5407407c12.8 0 22.755556 10.4296296 22.755556 22.7555555 0 12.325926-10.42963 22.755556-22.755556 22.755556h-10.42963-39.8222219v24.651851h39.8222219 10.42963 21.807407c12.325926 0 22.755556 10.42963 22.755556 22.755556 0 5.688889-1.896296 10.903704-5.688889 14.696296h27.496296c1.422223-4.74074 2.370371-9.481481 2.370371-14.696296.474074-19.911111-11.851852-36.977778-28.918519-43.614815z" fill="#6cb433"/></svg>

<?xml version="1.0" encoding="UTF-8" standalone="no"?>
<svg width="256px" height="296px" viewBox="0 0 256 296" version="1.1" xmlns="http://www.w3.org/2000/svg" xmlns:xlink="http://www.w3.org/1999/xlink" preserveAspectRatio="xMidYMid">
	<g>
		<path d="M0,73.9555556 L128,0 L256,73.9555556 L256,221.866667 L128,295.348148 L0,221.866667 L0,73.9555556 Z" fill="#FFFFFF"></path>
		<path d="M204.8,201.955556 L82.962963,201.955556 L82.962963,94.3407407 L58.7851852,94.3407407 L58.7851852,226.607407 L128,226.607407 L128,246.992593 L204.8,201.955556 Z" fill="#07582A"></path>
		<path d="M180.622222,135.585185 C185.837037,128 188.681481,118.992593 188.681481,109.511111 C188.681481,83.437037 167.348148,62.1037037 141.274074,62.1037037 L128,62.1037037 L128,45.9851852 L59.2592593,86.2814815 L140.8,86.2814815 C153.6,86.2814815 163.555556,96.7111111 163.555556,109.037037 C163.555556,121.362963 153.125926,131.792593 140.8,131.792593 L130.37037,131.792593 L90.5481481,131.792593 L90.5481481,156.444444 L130.37037,156.444444 L140.8,156.444444 L162.607407,156.444444 C174.933333,156.444444 185.362963,166.874074 185.362963,179.2 C185.362963,184.888889 183.466667,190.103704 179.674074,193.896296 L207.17037,193.896296 C208.592593,189.155556 209.540741,184.414815 209.540741,179.2 C210.014815,159.288889 197.688889,142.222222 180.622222,135.585185 L180.622222,135.585185 Z" fill="#6CB433"></path>
	</g>
</svg>
